X:1
T:MelodyTimothy
L:1/64
%            End of header, start of tune body:
V:0
%%MIDI program 0
K:C
M:4/4
 D32 A,28 D4-| D26 G28 z10-| z3 z10 z9 C42-| C2 C43 A7 c7 G5-| G2]
V:1
%%MIDI program 115
K:C
M:4/4
 A29 A29 z6-| z23 A14 A14 A3 z8 A2-| A6 z8 A4 A4 A21 A21 |
 A21 A21 A3 A1 A1 A1 z5 z5 z5 A1-| A2]
